lib/brands/icons/google-earth.svg

<svg xmlns="http://www.w3.org/2000/svg" fill="none" aria-hidden="true" viewBox="0 0 48 48"><g id="google-earth-Icon"><g id="Group"><g id="Group_2"><path id="path4" fill="#255FDB" d="M18.4113 27.7511C12.2761 19.6342 5.97726 25.8021 7.6215 31.4752C11.7573 40.5206 22.4427 44.5006 31.4881 40.3648C34.606 38.9393 37.2521 36.6534 39.1156 33.7759C34.3731 38.2178 25.7613 37.4754 18.4113 27.7511V27.7511Z"/><path id="path6" fill="#4285F4" d="M23.8965 22.1619C15.4585 9.36383 6.00002 16.1841 6.00002 24.0025C5.9966 26.5918 6.55479 29.1511 7.63607 31.5038C6.51333 26.205 12.6015 22.119 18.2705 29.7246C26.5019 40.768 34.5799 38.8252 39.0996 33.8004C40.5511 31.5722 41.4885 29.049 41.844 26.4136V26.4484C39.9033 32.4691 31.3385 33.4487 23.8965 22.1619Z"/><path id="path8" fill="#91BFFF" d="M29.6799 16.4357C23.4138 6.09784 15.4687 7.02835 10.0902 12.5685C7.43888 15.7883 5.99257 19.8315 6.00003 24.0025C6.56243 16.4357 15.7141 11.1696 23.9967 24.0025C31.359 35.4242 40.5311 32.4486 41.8359 26.4811V26.4238C41.9501 25.611 41.9986 24.7904 41.9811 23.9698V23.1517C38.7928 25.434 34.6004 24.5526 29.6799 16.4357V16.4357Z"/><path id="path10" fill="#C4E1FF" d="M29.7226 18.2763C35.461 27.5016 40.4081 25.1416 41.993 23.1681C41.9289 21.7891 41.7059 20.4221 41.3284 19.0943C38.6534 19.1495 38.0297 18.7037 35.3976 14.6953C31.375 8.53148 26.3073 4.36975 17.4521 7.23285C14.583 8.35817 12.0489 10.1975 10.0898 12.5766C16.1739 6.97722 23.6385 8.49672 29.7226 18.2763Z"/><path id="path12" fill="#F5F5F5" d="M35.005 15.4888C37.6289 19.5033 39.2261 19.7078 41.3284 19.0943C38.6025 9.51967 28.631 3.96765 19.0564 6.69353C18.5135 6.84808 17.9782 7.02807 17.4521 7.23286C25.3625 4.73786 30.9721 9.32292 35.005 15.4888Z"/></g><path id="circle27" fill="url(#paint0_radial_94_18079)" fill-opacity="0.1" d="M23.9967 41.9991C33.9359 41.9991 41.9933 33.9417 41.9933 24.0025C41.9933 14.0632 33.9359 6.00581 23.9967 6.00581C14.0574 6.00581 6 14.0632 6 24.0025C6 33.9417 14.0574 41.9991 23.9967 41.9991Z"/><path id="path16" fill="white" fill-opacity="0.2" d="M23.9967 6.21032C33.896 6.21032 41.9371 14.2053 41.9933 24.1047V24.0025C41.9933 14.0632 33.9359 6.00581 23.9967 6.00581C14.0574 6.00581 6 14.0632 6 24.0025V24.1047C6.05623 14.2053 14.0973 6.21032 23.9967 6.21032Z"/><path id="path18" fill="#1A237E" fill-opacity="0.2" d="M23.9967 41.7946C14.0973 41.7946 6.05624 33.7996 6 23.9002V24.0025C6 33.9417 14.0574 41.9991 23.9967 41.9991C33.9359 41.9991 41.9933 33.9417 41.9933 24.0025V23.9002C41.9371 33.7996 33.896 41.7946 23.9967 41.7946Z"/></g></g><defs><radialGradient id="paint0_radial_94_18079" cx="0" cy="0" r="1" gradientTransform="translate(11.436 11.442) scale(35.7561)" gradientUnits="userSpaceOnUse"><stop stop-color="white"/><stop offset="1" stop-color="white" stop-opacity="0"/></radialGradient></defs></svg>

<svg xmlns="http://www.w3.org/2000/svg" fill="none" aria-hidden="true" viewBox="0 0 48 48"><path fill="#255FDB" d="M18.411 27.751c-6.135-8.117-12.434-1.949-10.79 3.724 4.136 9.046 14.822 13.026 23.867 8.89a18.008 18.008 0 0 0 7.628-6.59c-4.743 4.443-13.355 3.7-20.705-6.024Z"/><path fill="#4285F4" d="M23.896 22.162C15.458 9.364 6 16.184 6 24.002a17.906 17.906 0 0 0 1.636 7.502c-1.123-5.299 4.965-9.385 10.634-1.78 8.232 11.044 16.31 9.101 20.83 4.076a17.923 17.923 0 0 0 2.744-7.386v.034c-1.94 6.021-10.506 7-17.948-4.286Z"/><path fill="#91BFFF" d="M29.68 16.436c-6.266-10.338-14.211-9.408-19.59-3.867A17.937 17.937 0 0 0 6 24.002c.562-7.567 9.714-12.833 17.997 0 7.362 11.421 16.534 8.446 17.839 2.478v-.057c.114-.813.163-1.634.145-2.454v-.818c-3.188 2.282-7.38 1.4-12.301-6.716Z"/><path fill="#C4E1FF" d="M29.723 18.276c5.738 9.226 10.685 6.866 12.27 4.892a17.944 17.944 0 0 0-.665-4.074c-2.675.055-3.298-.39-5.93-4.399-4.023-6.164-9.09-10.325-17.946-7.462a18.097 18.097 0 0 0-7.362 5.344c6.084-5.6 13.549-4.08 19.633 5.7Z"/><path fill="#F5F5F5" d="M35.005 15.489c2.624 4.014 4.221 4.219 6.323 3.605-2.726-9.574-12.697-15.126-22.272-12.4-.543.154-1.078.334-1.604.539 7.91-2.495 13.52 2.09 17.553 8.256Z"/><path fill="url(#a)" fill-opacity=".1" d="M23.997 42c9.939 0 17.996-8.058 17.996-17.997 0-9.94-8.057-17.997-17.996-17.997C14.057 6.006 6 14.063 6 24.003c0 9.939 8.057 17.996 17.997 17.996Z"/><path fill="#fff" fill-opacity=".2" d="M23.997 6.21c9.899 0 17.94 7.995 17.996 17.895v-.102c0-9.94-8.057-17.997-17.996-17.997C14.057 6.006 6 14.063 6 24.003v.102c.056-9.9 8.097-17.895 17.997-17.895Z"/><path fill="#1A237E" fill-opacity=".2" d="M23.997 41.795C14.097 41.795 6.057 33.8 6 23.9v.103c0 9.939 8.057 17.996 17.997 17.996 9.939 0 17.996-8.057 17.996-17.997V23.9c-.056 9.9-8.097 17.895-17.996 17.895Z"/><defs><radialGradient id="a" cx="0" cy="0" r="1" gradientTransform="translate(11.436 11.442) scale(35.7561)" gradientUnits="userSpaceOnUse"><stop stop-color="#fff"/><stop offset="1" stop-color="#fff" stop-opacity="0"/></radialGradient></defs></svg>
